X:1
T:The School Of Velocity
T:Op. 266
T:Carl Czerny
%%score { 1 | ( 2 3 ) }
L:1/8
Q:1/4=100
M:4/4
K:C
V:1 treble nm="Piano"
V:2 bass 
V:3 bass 
V:1
"C""^8" !1!C/D/E/F/ !5!G/!3!E/"G7"!4!F/!2!D/"C" C/D/E/F/ G/E/"G7"F/D/ | %1
"C" C/D/E/F/ G/E/"G7"F/D/"C" C/D/E/F/ G/E/"G7"F/D/ | %2
"C" !1!C/D/!3!E/!1!F/ G/A/B/c/"G/B" !1!D/E/!3!F/!1!G/ A/B/c/d/ | %3
"C" !1!E/F/!3!G/!1!A/ B/c/d/e/"D7/C" !2!^F/!1!G/A/!3!B/ !1!c/d/e/^f/ | %4
"G" !1!g/a/b/c'/ !5!d'/!3!b/"D7"!4!c'/!2!a/"G" g/a/b/c'/ d'/b/"D7"c'/a/ | %5
"G" g/a/b/c'/ d'/b/"D7"c'/a/"G" g/a/b/c'/ d'/b/"D7"c'/a/ | %6
"G" g/a/!3!b/!1!c'/!8va(! d'/e'/^f'/!5!g'/"G7/B" !1!=f'/!2!g'/!3!a'/!1!b'/ c''/d''/e''/f''/ | %7
"C" !4!e''/d''/c''/!1!b'/ !4!a'/g'/f'/!1!e'/!8va)!"G7" !4!d'/c'/b/!1!a/ !4!g/f/e/!1!d/ || %8
"C" !3!e/!2!d/!3!e/!4!f/"G7" !5!g/!2!d/!3!e/!4!f/"C" e/d/e/f/"G7" g/d/e/f/ | %9
"C" e/d/e/f/"G7" g/d/e/f/"C" e/^d/e/f/"E7" e/=d/!1!c/!2!B/ | %10
"Am" !3!c/!2!B/!3!c/!4!d/"E7" !5!e/!2!B/!3!c/!4!d/"Am" !3!c/B/c/d/"E7" e/B/c/d/ | %11
"Am" c/B/c/d/"E7" e/B/c/d/"Am" c/!1!A/!5!e/d/"Am/C" c/B/!1!A/!4!=G/ | %12
"D" !3!^F/G/A/G/ F/E/D/E/"D7/C" F/G/A/B/ !1!c/d/e/!4!^f/ | %13
"G/B" !1!g/a/b/c'/ !5!d'/c'/b/a/ !1!g/!4!^f/e/d/"G" !1!c/!3!B/A/G/ | %14
"D" !2!^F/!3!G/!1!A/B/ !3!c/!4!^c/!1!d/e/"D7/C" !3!^f/!1!g/a/!3!b/ !1!=c'/d'/e'/!4!^f'/ | %15
"G/B"!8va(! !1!g'/a'/b'/c''/ d''/c''/b'/a'/ g'/!4!^f'/e'/d'/ c'/!3!b/a/g/ | %16
"C" !>!!4!e'/g/c'/e'/ g'/e'/c'/g/"G/B" !>!!3!d'/g/b/d'/ g'/d'/b/g/!8va)! | %17
"Am" !>!!4!c'/!1!e/a/c'/ e'/c'/a/e/"Gdim" !>!!4!^c'/e/!2!_b/!4!c'/ e'/c'/b/e/ | %18
"D/F#" !>!!5!d'/!1!d/!2!^f/!3!a/ d'/a/f/d/"D7" !>!!5!c'/!1!c/!2!f/!4!a/ c'/a/f/c/ | %19
"G" !>!!5!=b/!1!=B/!2!d/!4!g/ b/g/d/B/"Am/C" !>!!5!a/!1!A/!2!c/!3!e/ a/e/c/A/ | %20
"G/D" !>!!5!g/!1!G/!2!B/!3!d/ !5!g/!1!B/!2!d/!4!g/ !5!b/!1!d/!2!g/!4!b/ !5!d'/!1!g/!2!b/!3!d'/ | %21
!8va(! g'/!1!b/d'/!4!g'/ d''/!1!d'/!2!g'/!4!b'/"D7" !5!d''/!4!c''/!3!a'/!2!^f'/ !1!d'/!4!c'/!3!a/!2!^f/!8va)! | %22
"G" !1!g/a/b/c'/ d'/b/"D7"c'/a/"G" g/a/b/c'/ d'/b/"D7"c'/a/ | %23
"G" g/g'/^f'/e'/ d'/!1!c'/!3!b/a/ !1!g/!4!^f/e/d/ !1!c/!3!B/A/G/ | %24
"D7" !2!^F/!1!G/!3!A/!4!B/ !5!c/B/!3!A/!1!G/ !2!F/!1!G/!3!A/B/ c/B/A/G/ | %25
"D7" !3!^F/!1!D/E/F/ !1!G/A/B/c/ !2!d/e/^f/!1!g/ a/b/c'/!5!d'/ || %26
"G" !3!b/!5!d'/c'/b/"D7" !2!a/!4!c'/b/a/"G" !1!g/!4!b/!3!a/!1!g/"D7" !2!^f/!4!a/g/f/ | %27
"G" !1!g/!5!d'/c'/b/"D7" a/c'/b/a/"G" g/!4!b/!3!a/!1!g/"D7" !2!^f/a/g/f/ | %28
"G" !1!g/!5!d'/c'/b/"G7" a/g/!5!=f'/e'/ d'/c'/b/!5!a'/ g'/f'/e'/d'/ | %29
!8va(! !4!^c''/d''/!4!=c''/b'/ a'/!1!g'/!3!f'/e'/!8va)! d'/!4!c'/b/a/ !1!g/!4!f/e/d/ || %30
"C" !1!c/!5!g/f/e/ d/c/B/c/ !3!e/g/f/e/ d/c/!2!B/!1!c/ | %31
"C7/E" !3!_B/!5!d/c/B/ A/!1!G/!2!^F/!1!G/ B/d/c/B/ A/G/!2!F/!1!G/ | %32
"F" !3!A/!5!c/_B/A/ G/!1!=F/!2!E/!1!F/ A/c/B/A/ G/F/!2!E/!1!F/ | %33
"C#dim" !3!G/!5!_B/A/G/ F/!1!E/!2!^D/!1!E/ G/B/A/G/ F/E/D/!1!E/ | %34
"Dm" !3!F/!5!A/G/F/ E/=D/^C/D/ F/A/G/F/ E/D/C/!1!D/ | %35
"Ddim/Ab" !3!d/!5!f/e/d/ =c/B/!2!^A/!1!B/ d/f/e/d/ c/B/A/!1!B/ | %36
"Ab7" !2!c/!3!^c/!1!d/!3!_e/ !1!=e/!2!f/!3!^f/!1!g/!8va(! !3!_a/!1!=a/!3!_b/!1!=b/ !2!c'/!3!^c'/!1!d'/!3!_e'/ | %37
 !1!=e'/!2!=f'/!3!^f'/!1!g'/ !3!_a'/!1!=a'/!3!_b'/!1!=b'/ !3!=c''/!4!d''/!3!c''/!2!b'/ !1!c''/!3!_e''/d''/c''/ | %38
"C/G" !3!=e''/!4!=f''/!2!d''/!3!e''/ !1!c''/!4!d''/!2!b'/!3!c''/ !1!a'/!4!b'/!2!g'/!3!a'/ !1!f'/!4!g'/!2!e'/!3!f'/!8va)! | %39
 !1!d'/!4!e'/!2!c'/!3!d'/ !1!b/!4!c'/!2!a/!3!b/ !1!g/!4!a/!2!f/!3!g/ !1!e/!4!f/!2!d/!3!e/ | %40
 !1!c/!4!d/!2!B/!3!c/ !1!A/!4!B/!2!G/!3!A/ !1!F/!4!G/!2!E/!3!F/ !1!D/!4!E/!2!C/!3!D/ | %41
"G7" !1!B,/!3!D/!2!C/!4!E/ !1!D/!3!F/!2!E/!4!G/ !1!F/!3!A/!2!G/!4!B/ !1!A/!3!c/!2!B/!4!d/ || %42
"C" !1!c/d/e/f/ !5!g/!3!e/"G7"!2!d/!4!f/"C" !3!e/!2!d/!3!e/!4!f/ !5!g/!3!e/"G7"!2!d/!4!f/ | %43
"C" !3!e/!2!d/!3!e/!4!f/ !5!g/!3!e/"G7"!2!d/!4!f/"C" !3!e/!2!d/!3!e/!4!f/ !5!g/!3!e/"G7"!2!d/!4!f/ | %44
"C" (!3!e/!4!f/!3!e/!2!^d/ !1!e/!2!g/!4!c'/!5!e'/"Dm/F" !1!=d/!4!e/!3!d/!2!^c/ !1!d/!2!f/!3!a/!5!d'/) | %45
"C/G" (!1!=c/!4!d/!3!c/!2!B/ !1!c/!2!e/!3!g/!5!c'/"G" !1!B/!4!c/!3!B/!2!^A/ !1!B/!2!d/!3!f/!5!b/) | %46
"C" !1!c/!5!c'/!3!g/!2!e/ !1!c/!3!G/"G7"!2!F/!1!D/"C" !3!E/D/C/D/ !3!E/!5!G/"G7"!4!F/!2!D/ | %47
"C" !3!E/!2!D/!1!C/!2!D/ !3!E/!5!G/!4!F/!2!D/ !3!E/!2!D/!1!C/!2!D/ !3!E/!5!G/!4!F/!2!D/ | %48
"C" !3!E/!1!C/!5!c/!4!B/ !3!A/!2!G/!1!F/!3!E/"Dm/F" !2!D/!1!A,/!5!B/!4!A/ !3!G/!2!F/!1!E/!3!D/ | %49
"C/G" !2!C/!1!G,/!5!A/!4!G/ !3!F/!2!E/!1!D/!3!C/"G7" !2!B,/!1!G,/!5!G/!4!F/ !3!E/!2!D/!1!C/!3!B,/ | %50
[K:bass]"C" (!4!C/!2!G,/!1!E,/!5!E/ !4!C/!2!G,/!1!E,/!5!E/ C/G,/E,/E/ C/G,/E,/E/ | %51
 C/G,/E,/E/ C/G,/E,/E/ C/G,/E,/E/ C/G,/E,/E/) |"C" (C/G,/E,/E/ C/G,/E,/E/ C/G,/E,/E/ C/G,/E,/E/ | %53
 C/G,/E,/E/ C/G,/E,/E/ C/G,/E,/E/ C/G,/E,/E/) | [E,G,C]8 :| %55
V:2
 z2 z [G,,D,] [C,E,] z z [G,,D,] | [C,E,] z z [G,,D,] [C,E,] z z [G,,D,] | %2
 [C,E,] z z2 [B,,G,] z z2 | [C,G,] z z2 [D,A,C]4 | [G,B,] z z[K:treble] [DA] [GB] z z [DA] | %5
 [GB] z z [DA] [GB] z z [DA] | [GB] z z2 [B,DG] z z2 | [CEG] z z2 [G,B,F] z z2 || %8
 [CG] z [B,G] z [CG] z [B,G] z | [CG] z [B,G] z [CG] z[K:bass] !4![^G,E] z | %10
 [A,E] z [^G,E] z [A,E] z [G,E] z | [A,E] z [^G,E] z [A,E] z [C,E,A,] z | %12
 !4![D,^F,A,] z z2 !4![C,D,A,] z [C,D,A,] z | [B,,D,G,] z z2 !4![B,,D,G,] z [G,,D,G,] z | %14
 [D,^F,A,] z z2 !4![=C,D,A,] z [C,D,A,] z | [B,,D,G,] z z2 [B,,D,G,] z [G,,D,G,] z | %16
 C, z [CE] z B,, z [B,D] z | A,, z [A,C] z G,, z [G,_B,] z | ^F,, z [^F,A,] z D,, z [F,A,] z | %19
 G,, z [D,G,] z C, z [CE] z | [D,G,B,]8- | [D,G,B,]4 !5!!3![D,^F,A,D]2 [D,F,A,D]2 | %22
 !2!!1![G,B,] z z[K:treble] !2![DA] [GB] z z !4!!1![DA] | [B,DG] z [B,DG] z [B,DG] z [B,DG] z | %24
[K:bass] [A,D] z z [CD] [A,D] z z [CD] | [A,C] z [D,A,] z [D,^F,A,] z [D,F,A,] z || %26
 [G,B,] z [CD] z [B,D] z [D,A,C] z | [G,B,] z [CD] z [B,D] z [D,A,C] z | %28
 [G,B,] z [G,B,=DF] z [G,B,DF] z [G,B,DF] z | [G,B,DF]8 || !3!!1![CE]2 z2 C4 | E,4 E,4 | F,4 F,4 | %33
 ^C,4 C,4 | D,4 D,4 | z2 [=B,,D,F,]2 z2 [B,,D,F,]2 | !5!!3!!2!!1![_A,,C,_E,^F,]8- | %37
 [A,,C,E,F,]2 [_A,,C,_E,^F,]2 [A,,C,E,F,]2 [A,,C,E,F,]2 | [C,=E,G,]8- | [C,=E,G,]8- | %40
 [C,E,G,]6 [C,E,]2 | [G,,D,F,]2 [G,,D,F,]4 [G,,D,F,]2 || %42
 [C,E,] z z[K:treble] [B,G] [CG] z z [B,G] | [CG] z z [B,G] [CG] z z [B,G] | %44
 [CG] z z2[K:bass] [F,A,D] z z2 | [G,CE] z z2 [G,DF] z z2 | [CE] z z [B,,G,] [C,G,] z z [B,,G,] | %47
 [C,G,] z z [B,,G,] [C,G,] z z [B,,G,] | [C,G,] z z2 [F,,A,,D,] z z2 | %49
 [G,,C,E,] z z2 [G,,D,F,] z z2 | [C,E,] z (!1!C,4 !2!G,,2 | !4!E,,2 !1!C,2 !2!G,,2 !4!E,,2) | %52
 z2 (E,,2 G,,2 C,2) | z2 (E,,2 G,,2 C,2) | C,,8 :| %55
V:3
 x8 | x8 | x8 | x8 | x3[K:treble] x5 | x8 | x8 | x8 || x8 | x11/2[K:bass] x5/2 | x8 | x8 | x8 | %13
 x8 | x8 | x8 | x8 | x8 | x8 | x8 | x8 | x8 | x5/2[K:treble] x11/2 | x8 |[K:bass] x8 | x8 || x8 | %27
 x8 | x8 | x8 || x4 !3!C2 [CE]2 | !5!E,2 [_B,C]2 E,2 [B,C]2 | !4!F,2 [A,C]2 F,2 [A,C]2 | %33
 ^C,2 [G,_B,]2 C,2 [G,B,]2 | D,2 [F,A,]2 D,2 [F,A,]2 | _A,,4 [A,,x]4 | x8 | x8 | G,,8- | G,,8- | %40
 G,,6 G,,2 | x8 || x3[K:treble] x5 | x8 | x7/2[K:bass] x9/2 | x8 | x8 | x8 | x8 | x8 | x8 | x8 | %52
 C,,8 | C,,8 | x8 :| %55

